X:157
T:The Pleasures of Hope
B:Terry "Cuz" Teahan "Sliabh Luachra on Parade" 1980
Z:Patrick Cavanagh
M:4/4
L:1/8
R:Hornpipe
K:D
A/B/c | dAFA BGEG | F/E/D FA dAFD | Eeef gefd | e/f/edB AGF/G/F | 
Addc dAFD | Eeef gec/e/c | dfad' bgec | d2dc d2 :| 
A/B/c | dfad' bgec | dfaf gece | dfaf gefd | B2BA B/c/d AG | 
Addc dAFD | Eeef gec/e/c | dfad' bgec | d2dc d2 :|| 

